X:29
T:James Moray of Abercarney
M:4/4
L:1/8
Q:128
K:G
G,3/B,/D3/G/ E/G3/D3/G/|A3/B/c/B/A/G/ E2E3/G/|G,3/B,/D3/G/ E/G3/D3/e/|d3/B/d/c/B/A/ G2G,B,|
W: G C G Am Am D7 G C G G D7 G
G,3/B,/D3/G/ E/G3/D3/G/|A3/B/c/B/A/G/ E2E3/G/|G,3/B,/D3/G/ E/G3/D3/e/|d3/B/d/c/B/A/ G2Ge|
W: G C G Am Am D7 G C G G D7 G
de/f/g3/d/ e3/d/g3/B/|c3/a/B3/g/ A2AB/c/|de/f/g3/d/ e3/d/g3/e/|d3/B/d/c/B/A/ G2Ge|
W: G C G Am G D G C G D7 G
de/f/g3/d/ e3/d/g3/B/|(3cac(3BgB A2AB/c/|(3dcB(3cBA B3/G/A3/B/|d3/e/d/c/B/A/ G2-Gz|
W: G C G Am G D G D Em Am G D7 G
